src/assets/filled/Like.svg

<?xml version="1.0" encoding="UTF-8"?>
<svg width="24" height="24" viewBox="0 0 24 24" xmlns="http://www.w3.org/2000/svg">
 <path d="m18 2h-12c-1.66 0-3 1.33-3 2.97v10.91c0 1.64 1.34 2.97 3 2.97h0.76c0.8 0 1.56 0.31 2.12 0.87l1.71 1.69c0.78 0.77 2.05 0.77 2.83 0l1.71-1.69c0.56-0.56 1.33-0.87 2.12-0.87h0.75c1.66 0 3-1.33 3-2.97v-10.91c0-1.64-1.34-2.97-3-2.97zm-5.72 12.96c-0.15 0.05-0.4 0.05-0.56 0-1.3-0.45-4.22-2.3-4.22-5.45 0.01-1.39 1.12-2.51 2.5-2.51 0.82 0 1.54 0.39 2 1 0.46-0.61 1.18-1 2-1 1.38 0 2.5 1.12 2.5 2.51-0.01 3.15-2.92 5-4.22 5.45z"/>
</svg>

<svg width="24" height="24" viewBox="0 0 24 24"  xmlns="http://www.w3.org/2000/svg">
<path d="M18 2H6C4.34 2 3 3.33 3 4.97V15.88C3 17.52 4.34 18.85 6 18.85H6.76C7.56 18.85 8.32 19.16 8.88 19.72L10.59 21.41C11.37 22.18 12.64 22.18 13.42 21.41L15.13 19.72C15.69 19.16 16.46 18.85 17.25 18.85H18C19.66 18.85 21 17.52 21 15.88V4.97C21 3.33 19.66 2 18 2ZM12.28 14.96C12.13 15.01 11.88 15.01 11.72 14.96C10.42 14.51 7.5 12.66 7.5 9.51C7.51 8.12 8.62 7 10 7C10.82 7 11.54 7.39 12 8C12.46 7.39 13.18 7 14 7C15.38 7 16.5 8.12 16.5 9.51C16.49 12.66 13.58 14.51 12.28 14.96Z" />
</svg>
